X:665
T:The Shaalds of Foula
C:Traditional Shetland
N:For the dance "Foula Reel"
S:Colin Hume's website,  colinhume.com  - chords can also be printed below the stave.
Q:3/8=120
M:6/8
K:Em
P:A
|: (3D/E/F/ | "G"G2G G2B | "G"edB "D/F#"A2B | "Em"G2G G2A | "G/D"BAG "C"E2D |\
"G"E<GG G2B | "G"edB "D/F#"A2B | "Em"G2G GAB | "D7"d3 d2 :|
P:B
|: d | "G"def g2d | "C"edB "D"A2B | "G"G2G "G/F#"G2A | "Em"BAG "D"E2D |\
"G"def g2d | "C"edB "D"A2B | "Em"G2G GAB | "D7"d3 d2 :|

